img/logo-small.svg

<svg width="46" height="36" viewBox="0 0 46 36" fill="none" xmlns="http://www.w3.org/2000/svg">
<path d="M46 17.2885L42.8298 13.0674C41.3239 14.3109 36.4576 17.5512 32.0986 17.5512C29.4673 17.5512 26.7567 16.4127 23.8877 15.1867C21.2564 14.0832 18.5617 12.9448 15.6926 12.5945C16.0255 12.2091 16.3901 11.8063 16.7705 11.3859C19.8773 7.95299 22.2233 5.95629 23.1427 5.23817C23.9669 5.88623 25.9166 7.56766 29.1344 11.1232C29.927 11.999 30.4659 12.612 31.0682 13.3126C32.4948 13.2951 34.3177 12.4543 35.7285 11.6311C34.825 10.4927 33.8105 9.28413 32.3046 7.63772C27.3749 2.19057 25.0606 0.684279 24.8229 0.526644C23.634 -0.208985 22.0331 -0.173956 20.9394 0.631733C20.8125 0.719307 17.8167 2.90868 13.4576 7.7253C11.3336 10.0723 9.8277 11.999 8.84493 13.3651C4.04204 14.9064 0.206065 17.954 0 18.1292L3.10682 22.4029C3.17022 22.3503 8.79738 17.884 13.9649 17.884C16.5327 17.884 19.2116 19.0225 22.0489 20.2135C24.6802 21.3169 27.3908 22.4554 30.2757 22.8232C29.8635 23.2961 29.4039 23.804 28.9283 24.347C25.6471 27.9726 23.7292 29.6015 22.9525 30.2145C22.0489 29.4964 19.8615 27.6398 16.8498 24.312C16.1523 23.5413 15.5183 22.8057 14.9635 22.1401L14.8525 22C13.4576 22 11.6347 22.8232 10.1923 23.6464C11.0958 24.8024 12.3163 26.2912 13.6954 27.815C18.1179 32.7017 20.9711 34.7334 21.0979 34.821C22.2391 35.6267 23.8243 35.6792 24.9814 34.9786C25.2192 34.8385 27.4383 33.4023 32.2729 28.0427C34.603 25.468 36.1565 23.5063 37.1709 22.1401C41.9738 20.5988 45.7939 17.4636 46 17.2885Z" fill="black"/>
</svg>

<svg width="46" height="36" fill="none" xmlns="http://www.w3.org/2000/svg"><path d="M46 17.288l-3.17-4.22c-1.506 1.243-6.372 4.483-10.731 4.483-2.632 0-5.342-1.138-8.211-2.364-2.632-1.104-5.326-2.242-8.195-2.592.333-.386.697-.789 1.077-1.21 3.107-3.432 5.453-5.429 6.373-6.147.824.648 2.774 2.33 5.991 5.885a106.28 106.28 0 011.934 2.19c1.427-.018 3.25-.859 4.66-1.682a71.952 71.952 0 00-3.423-3.993C27.375 2.19 25.06.684 24.823.527c-1.189-.736-2.79-.701-3.884.105-.127.087-3.122 2.277-7.481 7.093-2.124 2.347-3.63 4.274-4.613 5.64C4.042 14.906.206 17.954 0 18.13l3.107 4.274c.063-.053 5.69-4.519 10.858-4.519 2.568 0 5.247 1.139 8.084 2.33 2.631 1.103 5.342 2.241 8.227 2.61-.413.472-.872.98-1.348 1.523-3.28 3.626-5.199 5.255-5.976 5.867-.903-.718-3.09-2.574-6.102-5.902a70.915 70.915 0 01-1.887-2.172l-.11-.14c-1.395 0-3.218.823-4.66 1.646a77.041 77.041 0 003.502 4.169c4.423 4.887 7.276 6.918 7.403 7.006 1.141.806 2.726.858 3.883.158.238-.14 2.457-1.577 7.292-6.936 2.33-2.575 3.883-4.537 4.898-5.903 4.803-1.541 8.623-4.676 8.829-4.852z" fill="#000"/></svg>
